dhis-2/dhis-support/dhis-support-system/src/main/resources/SVGs/pwid_negative.svg

<svg width="48" height="48" viewBox="0 0 48 48" fill="none" xmlns="http://www.w3.org/2000/svg">
<path fill-rule="evenodd" clip-rule="evenodd" d="M0 0V47.9994H47.9994V0H0ZM3.99995 3.99995H5.00584H5.25583V4.00775L5.26163 3.99995L5.22263 7.8827C5.41203 10.8649 5.30573 10.4529 7.45691 12.0508L9.06039 13.3418L7.32221 13.7188C6.84491 13.8218 6.53842 14.2568 6.63272 14.6948C6.72752 15.1338 7.18691 15.4038 7.664 15.3008L10.6879 14.6458L32.9706 32.5326L34.7476 33.8566C37.5295 35.9275 37.4085 35.8916 40.3135 35.4836C41.3505 35.3376 42.3485 35.2286 42.5325 35.2416C43.0515 35.2776 43.4825 35.4476 43.9995 35.8195V43.9995H26.4507C26.3457 43.9184 26.3367 43.9065 26.1947 43.7985L25.1717 43.0155L3.99995 31.6406V6.99991V5.72453V4.15425V3.99995ZM26.6637 5.36323C26.8217 5.32423 26.9947 5.41433 27.0367 5.57803L27.3707 6.80651L27.7967 8.38659L31.4566 7.39641L31.2166 6.50972C31.1676 6.32972 31.2596 6.14922 31.4216 6.10542C31.4816 6.08992 31.5426 6.09672 31.5996 6.11902C31.6556 6.14142 31.7036 6.18012 31.7416 6.23232L31.7456 6.22652C31.7756 6.25662 31.7936 6.30482 31.8086 6.34762L32.6656 9.52138C32.7146 9.70128 32.6226 9.88228 32.4606 9.92568C32.2966 9.97198 32.1246 9.86388 32.0776 9.68148L31.8956 9.00379L28.2356 9.99397L28.6066 11.3689L28.9386 12.5978C28.9836 12.7588 28.8896 12.9228 28.7286 12.9668C28.5666 13.0108 28.3936 12.9218 28.3516 12.7578L28.0196 11.5309L26.6927 11.8889L25.0017 12.3458L17.1368 14.4768C16.2298 14.7188 15.3008 14.2938 14.8768 13.4958C14.8368 13.5148 14.7908 13.5548 14.7458 13.5618C14.4228 13.6488 14.1018 13.4858 13.9508 13.2008L7.8554 14.8498C7.6939 14.8938 7.52271 14.8058 7.48041 14.6428C7.43571 14.4808 7.53101 14.3148 7.6933 14.2708L13.7988 12.6168C13.7978 12.3078 13.9898 12.0238 14.3028 11.9389C14.3458 11.9289 14.3998 11.9299 14.4428 11.9299C14.3908 11.0139 14.9818 10.1599 15.9038 9.91008L23.7677 7.7811L25.4587 7.32221L26.7827 6.96471L26.4527 5.73823C26.4077 5.57673 26.5017 5.40663 26.6637 5.36323ZM26.9407 7.54681L23.8727 8.37879L24.1447 9.37878L27.2127 8.54679L26.9407 7.54681ZM31.6146 7.9843L27.9546 8.97449L28.0736 9.41198L31.7336 8.42179L31.6146 7.9843ZM23.2887 8.53509L22.3107 8.79479L22.4877 9.45498C22.5317 9.61688 22.4387 9.78078 22.2767 9.82408C22.1157 9.86828 21.9447 9.78078 21.9017 9.61708L21.7247 8.95689L21.5287 9.00969L21.5077 9.01359L22.9587 12.2618L24.2087 11.9238L23.2887 8.53509ZM21.1447 9.11709L21.0227 9.13079L21.2007 9.79088C21.2457 9.95228 21.1497 10.1169 20.9877 10.1599C20.8267 10.2039 20.6577 10.1169 20.6147 9.95298L20.4387 9.29088L19.7208 9.48428L19.8998 10.1449C19.9447 10.3059 19.8488 10.4719 19.6878 10.5159C19.5258 10.5599 19.3568 10.4719 19.3138 10.3089L19.1348 9.64828L18.4198 9.83968L18.5978 10.4999C18.6418 10.6619 18.5468 10.8299 18.3848 10.8729C18.2228 10.9169 18.0518 10.8239 18.0098 10.6599L17.8298 9.99987L17.1148 10.1929L17.2928 10.8549C17.3378 11.0169 17.2438 11.1829 17.0818 11.2269C16.9198 11.2709 16.7508 11.1789 16.7088 11.0159L16.5288 10.3549L16.2028 10.4429C15.3958 10.6619 14.9238 11.4899 15.1428 12.2968L15.1738 12.4198L15.2008 12.5428L15.2378 12.7028L15.2618 12.7848C15.4808 13.5918 16.3038 14.0638 17.1108 13.8458L22.4467 12.3998L22.5937 12.3628L21.1447 9.11709ZM27.3687 9.13269L24.3047 9.96278L24.4217 10.4019L27.4877 9.56828L27.3687 9.13269ZM27.6477 10.1519L24.5817 10.9859L24.7947 11.7659L27.8607 10.9359L27.6477 10.1519ZM19.6478 11.2149C19.6968 11.2119 19.7448 11.2249 19.7868 11.2499C19.7998 11.2579 19.8128 11.2669 19.8238 11.2769C19.8598 11.3079 19.8848 11.3479 19.8978 11.3929C19.9358 11.5229 19.8578 11.6589 19.7268 11.6929C19.5968 11.7279 19.4638 11.6509 19.4298 11.5209C19.3948 11.3929 19.4708 11.2599 19.5998 11.2249C19.6158 11.2199 19.6318 11.2159 19.6478 11.2149ZM21.3957 11.6089C21.4617 11.6049 21.5267 11.6209 21.5837 11.6539C21.6027 11.6649 21.6207 11.6789 21.6367 11.6929H21.6327C21.6787 11.7339 21.7127 11.7879 21.7297 11.8479C21.7767 12.0198 21.6757 12.1968 21.5037 12.2438C21.3317 12.2918 21.1537 12.1908 21.1047 12.0198C21.1027 12.0119 21.1007 12.0048 21.0997 11.9979L21.1017 11.9958C21.0687 11.8289 21.1707 11.6649 21.3357 11.6209C21.3557 11.6149 21.3757 11.6109 21.3957 11.6089ZM17.4198 11.9568C17.4728 11.9539 17.5248 11.9729 17.5638 12.0098L17.5678 12.0038C17.5968 12.0288 17.6178 12.0608 17.6288 12.0978C17.6568 12.2028 17.5938 12.3118 17.4878 12.3398C17.3838 12.3698 17.2738 12.3098 17.2438 12.2048C17.2168 12.1018 17.2758 11.9948 17.3788 11.9649C17.3918 11.9609 17.4058 11.9578 17.4198 11.9568ZM15.5818 12.2398C15.6188 12.2378 15.6558 12.2498 15.6838 12.2748L15.6858 12.2728C15.7048 12.2918 15.7188 12.3168 15.7248 12.3438C15.7438 12.4168 15.6998 12.4918 15.6268 12.5118C15.5538 12.5298 15.4808 12.4858 15.4608 12.4138C15.4598 12.4108 15.4578 12.4078 15.4568 12.4038C15.4428 12.3328 15.4858 12.2628 15.5568 12.2438C15.5648 12.2418 15.5728 12.2408 15.5818 12.2398ZM18.9218 12.4938C18.9848 12.4898 19.0468 12.5108 19.0938 12.5528L19.0978 12.5488C19.1308 12.5798 19.1548 12.6198 19.1658 12.6638C19.1978 12.7878 19.1248 12.9148 19.0018 12.9488C18.8768 12.9838 18.7478 12.9118 18.7128 12.7868C18.7098 12.7828 18.7078 12.7778 18.7048 12.7728C18.6818 12.6518 18.7558 12.5338 18.8748 12.5018C18.8898 12.4978 18.9058 12.4948 18.9218 12.4938ZM16.3688 12.8008C16.3958 12.7988 16.4238 12.8048 16.4468 12.8178C16.4558 12.8228 16.4628 12.8278 16.4708 12.8338L16.4668 12.8358C16.4848 12.8548 16.4978 12.8778 16.5038 12.9038C16.5228 12.9778 16.4788 13.0528 16.4058 13.0718C16.3328 13.0908 16.2578 13.0478 16.2378 12.9748C16.2368 12.9728 16.2358 12.9708 16.2338 12.9688L16.2358 12.9648C16.2228 12.8938 16.2668 12.8248 16.3358 12.8068C16.3468 12.8028 16.3578 12.8008 16.3688 12.8008Z" fill="#333333"/>
</svg>

<?xml version="1.0" encoding="UTF-8" standalone="no"?>
<!-- Created with Inkscape (http://www.inkscape.org/) -->
<svg id="svg8" xmlns:rdf="http://www.w3.org/1999/02/22-rdf-syntax-ns#" xmlns="http://www.w3.org/2000/svg" xmlns:osb="http://www.openswatchbook.org/uri/2009/osb" height="48" width="48" version="1.1" xmlns:cc="http://creativecommons.org/ns#" viewBox="0 0 12.7 12.7" xmlns:dc="http://purl.org/dc/elements/1.1/">
 <title id="title4753">UIO-icon</title>
 <metadata id="metadata5">
  <rdf:RDF>
   <cc:Work rdf:about="">
    <dc:format>image/svg+xml</dc:format>
    <dc:type rdf:resource="http://purl.org/dc/dcmitype/StillImage"/>
    <dc:title>UIO-icon</dc:title>
    <dc:creator>
     <cc:Agent>
      <dc:title>Joaquín Urbano</dc:title>
     </cc:Agent>
    </dc:creator>
    <dc:rights>
     <cc:Agent>
      <dc:title>GPL</dc:title>
     </cc:Agent>
    </dc:rights>
   </cc:Work>
  </rdf:RDF>
 </metadata>
 <g id="layer1" fill="#333" transform="translate(0,-284.3)">
  <path id="rect1880" d="m0 0v48h48v-48h-48zm4 4h1.0059 0.25v0.0078l0.0058-0.0078-0.039 3.8828c0.1894 2.9822 0.0831 2.5702 2.2343 4.1682l1.6035 1.291-1.7382 0.377c-0.4773 0.103-0.7838 0.538-0.6895 0.976 0.0948 0.439 0.5542 0.709 1.0313 0.606l3.0239-0.655 22.283 17.887 1.777 1.324c2.782 2.071 2.661 2.035 5.566 1.627 1.037-0.146 2.035-0.255 2.219-0.242 0.519 0.036 0.95 0.206 1.467 0.578v8.18h-17.549c-0.105-0.081-0.114-0.093-0.256-0.201l-1.023-0.783-21.172-11.375v-24.641-1.2754-1.5703-0.1543zm22.664 1.3633c0.158-0.039 0.331 0.0511 0.373 0.2148l0.334 1.2285 0.426 1.5801 3.66-0.9902-0.24-0.8867c-0.049-0.18 0.043-0.3605 0.205-0.4043 0.06-0.0155 0.121-0.0087 0.178 0.0136 0.056 0.0224 0.104 0.0611 0.142 0.1133l0.004-0.0058c0.03 0.0301 0.048 0.0783 0.063 0.1211l0.857 3.1738c0.049 0.1799-0.043 0.3609-0.205 0.4043-0.164 0.0463-0.336-0.0618-0.383-0.2442l-0.182-0.6777-3.66 0.9902 0.371 1.3749 0.332 1.229c0.045 0.161-0.049 0.325-0.21 0.369-0.162 0.044-0.335-0.045-0.377-0.209l-0.332-1.227-1.327 0.358-1.691 0.457-7.865 2.131c-0.907 0.242-1.836-0.183-2.26-0.981-0.04 0.019-0.086 0.059-0.131 0.066-0.323 0.087-0.644-0.076-0.795-0.361l-6.0955 1.649c-0.1615 0.044-0.3327-0.044-0.375-0.207-0.0447-0.162 0.0506-0.328 0.2129-0.372l6.1056-1.654c-0.001-0.309 0.191-0.593 0.504-0.678 0.043-0.01 0.097-0.009 0.14-0.009-0.052-0.916 0.539-1.77 1.461-2.0198l7.864-2.129 1.691-0.4589 1.324-0.3575-0.33-1.2265c-0.045-0.1615 0.049-0.3316 0.211-0.375zm0.277 2.1836l-3.068 0.832 0.272 1 3.068-0.832-0.272-1zm4.674 0.4375l-3.66 0.9902 0.119 0.4375 3.66-0.9902-0.119-0.4375zm-8.326 0.5508l-0.978 0.2597 0.177 0.6602c0.044 0.1619-0.049 0.3258-0.211 0.3691-0.161 0.0442-0.332-0.0433-0.375-0.207l-0.177-0.6602-0.196 0.0528-0.021 0.0039 1.451 3.2483 1.25-0.338-0.92-3.3888zm-2.144 0.582l-0.122 0.0137 0.178 0.6601c0.045 0.1614-0.051 0.326-0.213 0.369-0.161 0.044-0.33-0.043-0.373-0.2069l-0.176-0.6621-0.718 0.1934 0.179 0.6606c0.045 0.161-0.051 0.327-0.212 0.371-0.162 0.044-0.331-0.044-0.374-0.207l-0.179-0.6606-0.715 0.1914 0.178 0.6602c0.044 0.162-0.051 0.33-0.213 0.373-0.162 0.044-0.333-0.049-0.375-0.213l-0.18-0.66-0.715 0.193 0.178 0.662c0.045 0.162-0.049 0.328-0.211 0.372s-0.331-0.048-0.373-0.211l-0.18-0.661-0.326 0.088c-0.807 0.219-1.279 1.047-1.06 1.854l0.031 0.123 0.027 0.123 0.037 0.16 0.024 0.082c0.219 0.807 1.042 1.279 1.849 1.061l5.336-1.446 0.147-0.037-1.449-3.2458zm6.224 0.0156l-3.064 0.8301 0.117 0.4391 3.066-0.8336-0.119-0.4356zm0.279 1.0192l-3.066 0.834 0.213 0.78 3.066-0.83-0.213-0.784zm-8 1.063c0.049-0.003 0.097 0.01 0.139 0.035 0.013 0.008 0.026 0.017 0.037 0.027 0.036 0.031 0.061 0.071 0.074 0.116 0.038 0.13-0.04 0.266-0.171 0.3-0.13 0.035-0.263-0.042-0.297-0.172-0.035-0.128 0.041-0.261 0.17-0.296 0.016-0.005 0.032-0.009 0.048-0.01zm1.748 0.394c0.066-0.004 0.131 0.012 0.188 0.045 0.019 0.011 0.037 0.025 0.053 0.039h-0.004c0.046 0.041 0.08 0.095 0.097 0.155 0.047 0.172-0.054 0.349-0.226 0.396-0.172 0.048-0.35-0.053-0.399-0.224-0.002-0.008-0.004-0.015-0.005-0.022l0.002-0.002c-0.033-0.167 0.069-0.331 0.234-0.375 0.02-0.006 0.04-0.01 0.06-0.012zm-3.976 0.348c0.053-0.003 0.105 0.016 0.144 0.053l0.004-0.006c0.029 0.025 0.05 0.057 0.061 0.094 0.028 0.105-0.035 0.214-0.141 0.242-0.104 0.03-0.214-0.03-0.244-0.135-0.027-0.103 0.032-0.21 0.135-0.24 0.013-0.004 0.027-0.007 0.041-0.008zm-1.838 0.283c0.037-0.002 0.074 0.01 0.102 0.035l0.002-0.002c0.019 0.019 0.033 0.044 0.039 0.071 0.019 0.073-0.025 0.148-0.098 0.168-0.073 0.018-0.146-0.026-0.166-0.098-0.001-0.003-0.003-0.006-0.004-0.01-0.014-0.071 0.029-0.141 0.1-0.16 0.008-0.002 0.016-0.003 0.025-0.004zm3.34 0.254c0.063-0.004 0.125 0.017 0.172 0.059l0.004-0.004c0.033 0.031 0.057 0.071 0.068 0.115 0.032 0.124-0.041 0.251-0.164 0.285-0.125 0.035-0.254-0.037-0.289-0.162-0.003-0.004-0.005-0.009-0.008-0.014-0.023-0.121 0.051-0.239 0.17-0.271 0.015-0.004 0.031-0.007 0.047-0.008zm-2.553 0.307c0.027-0.002 0.055 0.004 0.078 0.017 0.009 0.005 0.016 0.01 0.024 0.016l-0.004 0.002c0.018 0.019 0.031 0.042 0.037 0.068 0.019 0.074-0.025 0.149-0.098 0.168s-0.148-0.024-0.168-0.097c-0.001-0.002-0.002-0.004-0.004-0.006l0.002-0.004c-0.013-0.071 0.031-0.14 0.1-0.158 0.011-0.004 0.022-0.006 0.033-0.006z" fill-rule="evenodd" transform="matrix(.26458 0 0 .26458 0 284.3)"/>
 </g>
</svg>
